X: 305757
M: 6/8
L: 1/8
K: C
c3 d3 | e>ge d>cd | e>dc cAG | Gce d3 |\
c3 d3 | e>ge dcd | edc cAG | GAB c2 H|]
e/f/ |\
g2a g>ec | g2a f>ec | gec gec | gfe e2d |\
c3 d3 | e>ge d>cd | e>dc c>AG | GAB "^D.C."c2 |]


